packages/vapor/resources/icons/svg/access-shared.svg

<svg enable-background="new 0 0 512 512" height="512" viewBox="0 0 512 512" width="512" xmlns="http://www.w3.org/2000/svg"><path d="m323.779 67.112c.068-.006.108-.01.126-.011-.02.002-.066.006-.126.011z"/><path d="m323.497 67.139c.094-.009.199-.019.282-.026-.065.006-.155.014-.282.026z"/><path d="m323.905 67.101c.012-.001.012-.001 0 0z"/><path d="m323.288 67.158c.014-.001.021-.002.035-.003-.02.002-.035.003-.035.003z"/><path d="m323.475 67.141c.009-.001.018-.001.022-.002-.008.001-.015.001-.022.002z"/><path d="m323.323 67.155c.033-.003.087-.008.149-.014-.044.005-.093.009-.149.014z"/><path d="m367.116 285.354c2.147-40.731 21.858-48.284 23.274-62.622.314-3.067 9.646-22.281 6.137-30.932-7.813-19.162-1.312-36.986 3.25-58.219 3.382-15.675-8.65-30.04-8.65-30.04s-21.127-32.713-59.084-36.383c-1.468-.157-7.34-.131-8.755 0-37.904 3.67-59.058 36.384-59.058 36.384s-12.034 14.365-8.68 30.04c4.562 21.232 11.062 39.057 3.251 58.219-3.513 8.65 5.819 27.864 6.136 30.932 1.439 14.338 21.151 21.888 23.304 62.623 1.421 26.936-48.295 47.929-82.152 59.063-15.595-8.56-28.023-19.28-27.392-31.567 1.625-32.164 16.724-38.114 17.825-49.438.21-2.411 7.366-17.589 4.666-24.403-5.977-15.151-.996-29.202 2.49-45.978 2.595-12.373-6.632-23.697-6.632-23.697s-16.147-25.846-45.139-28.729c-1.152-.105-5.66-.105-6.709 0-28.992 2.883-45.191 28.729-45.191 28.729s-9.018 11.298-6.606 23.697c3.277 16.881 8.44 30.826 2.464 45.978-2.673 6.814 4.457 21.992 4.719 24.403 1.075 11.324 16.147 17.273 17.798 49.438 1.651 32.162-86.162 53.604-86.162 53.604v49.544h447.78l-.221-62.754s-114.813-27.156-112.663-67.892z"/><path d="m332.043 67.158c-.016-.001-.025-.003-.04-.004.023.002.04.004.04.004z"/><path d="m331.416 67.091c-.027-.003-.03-.003 0 0z"/><path d="m332.003 67.154c-.021-.002-.047-.005-.08-.008.026.002.051.005.08.008z"/><path d="m331.923 67.146c-.304-.033-.456-.049-.507-.055.078.009.347.037.507.055z"/><path d="m151.54 140.572c.081.007.189.018.369.034 0 0-.217-.02-.369-.034z"/><path d="m151.54 140.572c-.211-.019-.141-.012 0 0z"/><path d="m145.198 140.606c.172-.017.272-.027.345-.035-.138.014-.345.035-.345.035z"/><path d="m145.543 140.571c.12-.011.173-.017 0 0z"/></svg>

<?xml version="1.0" encoding="utf-8"?>
<!-- Generator: Adobe Illustrator 16.0.4, SVG Export Plug-In . SVG Version: 6.00 Build 0)  -->
<!DOCTYPE svg PUBLIC "-//W3C//DTD SVG 1.1//EN" "http://www.w3.org/Graphics/SVG/1.1/DTD/svg11.dtd">
<svg version="1.1" id="Layer_1" xmlns="http://www.w3.org/2000/svg" xmlns:xlink="http://www.w3.org/1999/xlink" x="0px" y="0px"
	 width="512px" height="512px" viewBox="0 0 512 512" enable-background="new 0 0 512 512" xml:space="preserve">
<g>
	<path d="M323.779,67.112c0.068-0.006,0.108-0.01,0.126-0.011C323.885,67.103,323.839,67.107,323.779,67.112z"/>
	<path d="M323.497,67.139c0.094-0.009,0.199-0.019,0.282-0.026C323.714,67.119,323.624,67.127,323.497,67.139z"/>
	<path d="M323.905,67.101C323.917,67.1,323.917,67.1,323.905,67.101L323.905,67.101z"/>
	<path d="M323.288,67.158c0.014-0.001,0.021-0.002,0.035-0.003C323.303,67.157,323.288,67.158,323.288,67.158z"/>
	<path d="M323.475,67.141c0.009-0.001,0.018-0.001,0.022-0.002C323.489,67.14,323.482,67.14,323.475,67.141z"/>
	<path d="M323.323,67.155c0.033-0.003,0.087-0.008,0.149-0.014C323.428,67.146,323.379,67.15,323.323,67.155z"/>
	<path d="M367.116,285.354c2.147-40.731,21.858-48.284,23.274-62.622c0.314-3.067,9.646-22.281,6.137-30.932
		c-7.813-19.162-1.312-36.986,3.25-58.219c3.382-15.675-8.65-30.04-8.65-30.04S370,70.828,332.043,67.158
		c-1.468-0.157-7.34-0.131-8.755,0c-37.904,3.67-59.058,36.384-59.058,36.384s-12.034,14.365-8.68,30.04
		c4.562,21.232,11.062,39.057,3.251,58.219c-3.513,8.65,5.819,27.864,6.136,30.932c1.439,14.338,21.151,21.888,23.304,62.623
		c1.421,26.936-48.295,47.929-82.152,59.063c-15.595-8.56-28.023-19.28-27.392-31.567c1.625-32.164,16.724-38.114,17.825-49.438
		c0.21-2.411,7.366-17.589,4.666-24.403c-5.977-15.151-0.996-29.202,2.49-45.978c2.595-12.373-6.632-23.697-6.632-23.697
		s-16.147-25.846-45.139-28.729c-1.152-0.105-5.66-0.105-6.709,0c-28.992,2.883-45.191,28.729-45.191,28.729
		s-9.018,11.298-6.606,23.697c3.277,16.881,8.44,30.826,2.464,45.978c-2.673,6.814,4.457,21.992,4.719,24.403
		c1.075,11.324,16.147,17.273,17.798,49.438c1.651,32.162-86.162,53.604-86.162,53.604V416H480l-0.221-62.754
		C479.779,353.246,364.966,326.09,367.116,285.354z"/>
	<path d="M332.043,67.158c-0.016-0.001-0.025-0.003-0.04-0.004C332.026,67.156,332.043,67.158,332.043,67.158z"/>
	<path d="M331.416,67.091C331.389,67.088,331.386,67.088,331.416,67.091L331.416,67.091z"/>
	<path d="M332.003,67.154c-0.021-0.002-0.047-0.005-0.08-0.008C331.949,67.148,331.974,67.151,332.003,67.154z"/>
	<path d="M331.923,67.146c-0.304-0.033-0.456-0.049-0.507-0.055C331.494,67.1,331.763,67.128,331.923,67.146z"/>
	<path d="M151.54,140.572c0.081,0.007,0.189,0.018,0.369,0.034C151.909,140.606,151.692,140.586,151.54,140.572z"/>
	<path d="M151.54,140.572C151.329,140.553,151.399,140.56,151.54,140.572L151.54,140.572z"/>
	<path d="M145.198,140.606c0.172-0.017,0.272-0.027,0.345-0.035C145.405,140.585,145.198,140.606,145.198,140.606z"/>
	<path d="M145.543,140.571C145.663,140.56,145.716,140.554,145.543,140.571L145.543,140.571z"/>
</g>
<g id="Layer_1_1_" display="none">
	<g display="inline" opacity="0.3">
		<line fill="none" stroke="#B35047" x1="50" y1="-1" x2="50" y2="511"/>
		<line fill="none" stroke="#B35047" x1="82" y1="-1" x2="82" y2="511"/>
		<line fill="none" stroke="#B35047" x1="114" y1="-1" x2="114" y2="511"/>
		<line fill="none" stroke="#B35047" x1="146" y1="-1" x2="146" y2="511"/>
		<line fill="none" stroke="#B35047" x1="178" y1="-1" x2="178" y2="511"/>
		<line fill="none" stroke="#B35047" x1="210" y1="-1" x2="210" y2="511"/>
		<line fill="none" stroke="#B35047" x1="242" y1="-1" x2="242" y2="511"/>
		<line fill="none" stroke="#B35047" x1="274" y1="-1" x2="274" y2="511"/>
		<line fill="none" stroke="#B35047" x1="306" y1="-1" x2="306" y2="511"/>
		<line fill="none" stroke="#B35047" x1="338" y1="-1" x2="338" y2="511"/>
		<line fill="none" stroke="#B35047" x1="370" y1="-1" x2="370" y2="511"/>
		<line fill="none" stroke="#B35047" x1="402" y1="-1" x2="402" y2="511"/>
		<line fill="none" stroke="#B35047" x1="434" y1="-1" x2="434" y2="511"/>
		<line fill="none" stroke="#B35047" x1="466" y1="-1" x2="466" y2="511"/>
		<line fill="none" stroke="#B35047" x1="498" y1="-1" x2="498" y2="511"/>
		<line fill="none" stroke="#B35047" x1="2" y1="47" x2="514" y2="47"/>
		<line fill="none" stroke="#B35047" x1="2" y1="79" x2="514" y2="79"/>
		<line fill="none" stroke="#B35047" x1="2" y1="111" x2="514" y2="111"/>
		<line fill="none" stroke="#B35047" x1="2" y1="143" x2="514" y2="143"/>
		<line fill="none" stroke="#B35047" x1="2" y1="175" x2="514" y2="175"/>
		<line fill="none" stroke="#B35047" x1="2" y1="207" x2="514" y2="207"/>
		<line fill="none" stroke="#B35047" x1="2" y1="239" x2="514" y2="239"/>
		<line fill="none" stroke="#B35047" x1="2" y1="271" x2="514" y2="271"/>
		<line fill="none" stroke="#B35047" x1="2" y1="303" x2="514" y2="303"/>
		<line fill="none" stroke="#B35047" x1="2" y1="336.053" x2="513.877" y2="336.053"/>
		<line fill="none" stroke="#B35047" x1="2" y1="367" x2="514" y2="367"/>
		<line fill="none" stroke="#B35047" x1="2" y1="399" x2="514" y2="399"/>
		<line fill="none" stroke="#B35047" x1="2" y1="431" x2="514" y2="431"/>
		<line fill="none" stroke="#B35047" x1="2" y1="463" x2="514" y2="463"/>
		<line fill="none" stroke="#B35047" x1="2" y1="495" x2="514" y2="495"/>
		<line fill="none" stroke="#B35047" x1="2" y1="15" x2="514" y2="15"/>
		<line fill="none" stroke="#B35047" x1="18" y1="-1" x2="18" y2="511"/>
	</g>
	<g display="inline">
		<line fill="none" stroke="#B35047" x1="32" y1="-1" x2="32" y2="511"/>
		<line fill="none" stroke="#B35047" x1="64" y1="-1" x2="64" y2="511"/>
		<line fill="none" stroke="#B35047" x1="96" y1="-1" x2="96" y2="511"/>
		<line fill="none" stroke="#B35047" x1="128" y1="-1" x2="128" y2="511"/>
		<line fill="none" stroke="#B35047" x1="160" y1="-1" x2="160" y2="511"/>
		<line fill="none" stroke="#B35047" x1="192" y1="-1" x2="192" y2="511"/>
		<line fill="none" stroke="#B35047" x1="224" y1="-1" x2="224" y2="511"/>
		<line fill="none" stroke="#B35047" x1="256" y1="-1" x2="256" y2="511"/>
		<line fill="none" stroke="#B35047" x1="288" y1="-1" x2="288" y2="511"/>
		<line fill="none" stroke="#B35047" x1="320" y1="-1" x2="320" y2="511"/>
		<line fill="none" stroke="#B35047" x1="352" y1="-1" x2="352" y2="511"/>
		<line fill="none" stroke="#B35047" x1="384" y1="-1" x2="384" y2="511"/>
		<line fill="none" stroke="#B35047" x1="416" y1="-1" x2="416" y2="511"/>
		<line fill="none" stroke="#B35047" x1="448" y1="-1" x2="448" y2="511"/>
		<line fill="none" stroke="#B35047" x1="480" y1="-1" x2="480" y2="511"/>
		<line fill="none" stroke="#B35047" x1="0" y1="31" x2="512" y2="31"/>
		<line fill="none" stroke="#B35047" x1="0" y1="63" x2="512" y2="63"/>
		<line fill="none" stroke="#B35047" x1="0" y1="95" x2="512" y2="95"/>
		<line fill="none" stroke="#B35047" x1="0" y1="127" x2="512" y2="127"/>
		<line fill="none" stroke="#B35047" x1="0" y1="159" x2="512" y2="159"/>
		<line fill="none" stroke="#B35047" x1="0" y1="191" x2="512" y2="191"/>
		<line fill="none" stroke="#B35047" x1="0" y1="223" x2="512" y2="223"/>
		<line fill="none" stroke="#B35047" x1="0" y1="255" x2="512" y2="255"/>
		<line fill="none" stroke="#B35047" x1="0" y1="287" x2="512" y2="287"/>
		<line fill="none" stroke="#B35047" x1="0" y1="319" x2="512" y2="319"/>
		<line fill="none" stroke="#B35047" x1="0" y1="351" x2="512" y2="351"/>
		<line fill="none" stroke="#B35047" x1="0" y1="383" x2="512" y2="383"/>
		<line fill="none" stroke="#B35047" x1="0" y1="415" x2="512" y2="415"/>
		<line fill="none" stroke="#B35047" x1="0" y1="447" x2="512" y2="447"/>
		<line fill="none" stroke="#B35047" x1="0" y1="479" x2="512" y2="479"/>
		<rect y="-1" fill="none" stroke="#B35047" width="512" height="512"/>
	</g>
</g>
</svg>
